src/icons/logo-gather.svg

<svg width="64" height="24" viewBox="0 0 64 24" fill="none" xmlns="http://www.w3.org/2000/svg">
<path d="M55.1611 17.3231H57.9302V10.3547H55.1611V9.1077H59.3972V11.4916H59.4889C59.6845 10.7459 60.0512 10.1652 60.5891 9.74952C61.1393 9.32164 61.8361 9.1077 62.6797 9.1077H64V10.5747H62.2212C61.3777 10.5747 60.6931 10.8192 60.1674 11.3082C59.6539 11.7973 59.3972 12.4391 59.3972 13.2337V17.3231H63.0648V18.57H55.1611V17.3231Z" fill="#111111"/>
<path d="M48.4199 18.7901C47.7353 18.7901 47.118 18.674 46.5678 18.4417C46.0299 18.2094 45.5653 17.8793 45.1741 17.4514C44.7952 17.0113 44.5018 16.4917 44.2939 15.8927C44.0861 15.2814 43.9822 14.6029 43.9822 13.8572C43.9822 13.0992 44.0861 12.4146 44.2939 11.8034C44.514 11.1921 44.8135 10.6725 45.1925 10.2446C45.5715 9.80453 46.0238 9.46833 46.5495 9.23605C47.0874 9.00377 47.6803 8.88763 48.3283 8.88763C48.964 8.88763 49.5386 9.00377 50.052 9.23605C50.5777 9.46833 51.0239 9.7923 51.3907 10.208C51.7574 10.6114 52.0386 11.0943 52.2342 11.6567C52.4298 12.219 52.5276 12.8364 52.5276 13.5088V14.2056H45.5226V14.6457C45.5226 15.0614 45.5898 15.4465 45.7243 15.801C45.8588 16.1555 46.0482 16.4612 46.2927 16.7179C46.5495 16.9746 46.8551 17.1764 47.2096 17.3231C47.5764 17.4575 47.9798 17.5248 48.4199 17.5248C49.0557 17.5248 49.6058 17.3781 50.0704 17.0847C50.5349 16.7913 50.8894 16.3878 51.134 15.8744L52.2159 16.6079C51.9347 17.2436 51.464 17.7693 50.8039 18.1849C50.1559 18.5884 49.3613 18.7901 48.4199 18.7901ZM48.3283 10.0979C47.9248 10.0979 47.552 10.1713 47.2096 10.318C46.8673 10.4647 46.5678 10.6664 46.3111 10.9231C46.0666 11.1799 45.871 11.4855 45.7243 11.84C45.5898 12.1823 45.5226 12.5613 45.5226 12.977V13.1053H50.9506V12.9036C50.9506 12.488 50.8833 12.109 50.7489 11.7667C50.6266 11.4244 50.4493 11.131 50.2171 10.8865C49.997 10.6297 49.7219 10.4341 49.3918 10.2997C49.074 10.1652 48.7195 10.0979 48.3283 10.0979Z" fill="#111111"/>
<path d="M33.5549 5H35.022V10.6481H35.0953C35.1931 10.4158 35.3154 10.1957 35.4621 9.9879C35.6088 9.76785 35.786 9.57836 35.9939 9.41943C36.2139 9.2605 36.4707 9.13214 36.7641 9.03433C37.0575 8.93653 37.3998 8.88763 37.791 8.88763C38.7812 8.88763 39.5759 9.20549 40.1749 9.8412C40.7739 10.4647 41.0735 11.351 41.0735 12.5002V18.57H39.6064V12.7569C39.6064 11.8889 39.4169 11.2471 39.038 10.8314C38.659 10.4036 38.1027 10.1896 37.3692 10.1896C37.0758 10.1896 36.7885 10.2263 36.5073 10.2996C36.2262 10.373 35.9755 10.483 35.7555 10.6297C35.5354 10.7764 35.3582 10.9659 35.2237 11.1982C35.0892 11.4305 35.022 11.6994 35.022 12.0051V18.57H33.5549V5Z" fill="#111111"/>
<path d="M26.7222 18.57C26.0009 18.57 25.4691 18.3683 25.1268 17.9649C24.7967 17.5615 24.6317 17.0419 24.6317 16.4062V10.3547H21.4775V9.1077H23.8248C24.1426 9.1077 24.3627 9.04657 24.485 8.92432C24.6194 8.78984 24.6867 8.56367 24.6867 8.24582V5.7702H26.0987V9.1077H30.4081V10.3547H26.0987V17.3231H30.4081V18.57H26.7222Z" fill="#111111"/>
<path d="M18.844 18.57C18.2694 18.57 17.8599 18.4233 17.6154 18.1299C17.3709 17.8365 17.218 17.4698 17.1569 17.0297H17.0652C16.8574 17.5798 16.5212 18.0138 16.0566 18.3316C15.6043 18.6373 14.993 18.7901 14.2229 18.7901C13.2326 18.7901 12.4441 18.5334 11.8573 18.0199C11.2705 17.5064 10.9771 16.8035 10.9771 15.911C10.9771 15.0308 11.2949 14.3523 11.9306 13.8755C12.5786 13.3988 13.6177 13.1604 15.0481 13.1604H17.0652V12.2251C17.0652 11.5283 16.8696 11.0087 16.4784 10.6664C16.0872 10.3119 15.531 10.1346 14.8097 10.1346C14.174 10.1346 13.6544 10.263 13.2509 10.5197C12.8475 10.7642 12.5235 11.1004 12.279 11.5283L11.2888 10.7948C11.411 10.5503 11.5761 10.3119 11.7839 10.0796C11.9917 9.84732 12.2485 9.6456 12.5541 9.47445C12.8597 9.29107 13.2082 9.15048 13.5994 9.05267C13.9906 8.94265 14.4246 8.88763 14.9014 8.88763C16.0139 8.88763 16.8941 9.16881 17.542 9.73118C18.2022 10.2935 18.5323 11.076 18.5323 12.0784V17.2864H19.8526V18.57H18.844ZM14.4796 17.5615C14.8586 17.5615 15.2009 17.5187 15.5065 17.4331C15.8244 17.3353 16.0994 17.213 16.3317 17.0663C16.564 16.9074 16.7413 16.724 16.8635 16.5162C16.998 16.2961 17.0652 16.0639 17.0652 15.8194V14.2606H15.0481C14.1678 14.2606 13.526 14.3829 13.1226 14.6274C12.7192 14.8719 12.5174 15.2264 12.5174 15.691V16.0761C12.5174 16.5651 12.6886 16.938 13.0309 17.1947C13.3854 17.4392 13.8683 17.5615 14.4796 17.5615Z" fill="#111111"/>
<path d="M9.05892 19.652C9.05892 20.6055 8.6616 21.3085 7.86695 21.7608C7.07231 22.2254 5.88035 22.4577 4.29107 22.4577C2.76291 22.4577 1.66264 22.2559 0.990246 21.8525C0.330082 21.4491 0 20.8684 0 20.1104C0 19.597 0.134478 19.1996 0.403433 18.9185C0.672389 18.6373 1.05137 18.4294 1.54038 18.295V18.0749C1.27143 17.9404 1.0636 17.7693 0.916894 17.5615C0.770191 17.3536 0.69684 17.0908 0.69684 16.7729C0.69684 16.2839 0.855768 15.9172 1.17362 15.6727C1.50371 15.4281 1.91325 15.2448 2.40226 15.1225V15.0492C1.81545 14.7924 1.357 14.4134 1.02692 13.9122C0.709065 13.411 0.550137 12.8242 0.550137 12.1518C0.550137 11.675 0.635713 11.2349 0.806867 10.8314C0.97802 10.428 1.22253 10.0857 1.54038 9.80453C1.87046 9.51112 2.26167 9.28495 2.71401 9.12603C3.16634 8.9671 3.66758 8.88763 4.21771 8.88763C4.92678 8.88763 5.55027 9.016 6.08818 9.27273V9.10769C6.08818 8.74093 6.17376 8.4353 6.34491 8.19079C6.51606 7.94629 6.80947 7.82404 7.22513 7.82404H8.96723V9.10769H6.84003V9.74951C7.18234 10.0429 7.44518 10.3913 7.62856 10.7948C7.81194 11.1982 7.90363 11.6505 7.90363 12.1518C7.90363 12.6286 7.81194 13.0687 7.62856 13.4721C7.45741 13.8755 7.2129 14.224 6.89505 14.5174C6.57719 14.7985 6.18598 15.0186 5.72142 15.1775C5.26909 15.3365 4.76785 15.4159 4.21771 15.4159C4.05879 15.4159 3.90597 15.4098 3.75927 15.3976C3.61256 15.3854 3.46586 15.367 3.31916 15.3426C3.17245 15.367 3.01964 15.4098 2.86071 15.4709C2.70178 15.5198 2.55508 15.5932 2.4206 15.691C2.28612 15.7766 2.1761 15.8805 2.09052 16.0027C2.00494 16.125 1.96215 16.2656 1.96215 16.4245C1.96215 16.7057 2.10274 16.8952 2.38393 16.993C2.66511 17.0786 3.03186 17.1213 3.4842 17.1213H5.57472C6.79724 17.1213 7.68357 17.3536 8.23371 17.8182C8.78385 18.2705 9.05892 18.8818 9.05892 19.652ZM7.68357 19.7253C7.68357 19.3463 7.53076 19.0407 7.22513 18.8084C6.9195 18.5884 6.3877 18.4783 5.62973 18.4783H2.34725C1.71154 18.7351 1.39368 19.163 1.39368 19.762C1.39368 20.1777 1.55872 20.5322 1.8888 20.8256C2.21888 21.1312 2.76902 21.284 3.53921 21.284H4.96957C5.82534 21.284 6.49161 21.1496 6.9684 20.8806C7.44518 20.6239 7.68357 20.2388 7.68357 19.7253ZM4.21771 14.279C4.95123 14.279 5.48914 14.1078 5.83145 13.7655C6.18598 13.4232 6.36325 12.9709 6.36325 12.4085V11.8767C6.36325 11.3143 6.18598 10.8681 5.83145 10.538C5.48914 10.1957 4.95123 10.0246 4.21771 10.0246C3.4842 10.0246 2.94629 10.1957 2.60398 10.538C2.26167 10.8681 2.09052 11.3143 2.09052 11.8767V12.4085C2.09052 12.9709 2.26167 13.4232 2.60398 13.7655C2.94629 14.1078 3.4842 14.279 4.21771 14.279Z" fill="#111111"/>
</svg>

<svg xmlns="http://www.w3.org/2000/svg" fill="none" viewBox="0 0 64 24"><path d="M55.161 17.323h2.77v-6.968h-2.77V9.108h4.236v2.384h.092q.293-1.12 1.1-1.742.825-.642 2.09-.642H64v1.467h-1.779q-1.265 0-2.054.733-.77.734-.77 1.926v4.09h3.668v1.246H55.16zM48.42 18.79q-1.027 0-1.852-.348a4 4 0 0 1-1.394-.99 4.8 4.8 0 0 1-.88-1.56 6.3 6.3 0 0 1-.312-2.035q0-1.136.312-2.054.33-.915.899-1.558.567-.66 1.357-1.009a4.4 4.4 0 0 1 1.778-.348q.954 0 1.724.348.789.348 1.339.972.55.604.843 1.449.294.843.294 1.852v.697h-7.005v.44q0 .623.201 1.155.202.531.569.917.385.385.917.605.55.202 1.21.202.954 0 1.65-.44a2.85 2.85 0 0 0 1.064-1.21l1.082.733q-.422.954-1.412 1.577-.972.605-2.384.605m-.092-8.692a2.8 2.8 0 0 0-2.017.825 3 3 0 0 0-.587.917 3.1 3.1 0 0 0-.201 1.137v.128h5.428v-.201q0-.624-.202-1.137a2.5 2.5 0 0 0-.532-.88 2.1 2.1 0 0 0-.825-.587 2.7 2.7 0 0 0-1.064-.202M33.555 5h1.467v5.648h.073a3.5 3.5 0 0 1 .367-.66q.22-.33.532-.569.33-.238.77-.385a3.3 3.3 0 0 1 1.027-.146q1.485 0 2.384.953.899.936.899 2.66v6.069h-1.468v-5.813q0-1.302-.568-1.926-.568-.64-1.669-.641-.44 0-.862.11a2.5 2.5 0 0 0-.751.33q-.33.22-.532.568a1.6 1.6 0 0 0-.202.807v6.565h-1.467zM26.722 18.57q-1.082 0-1.595-.605-.495-.606-.495-1.559v-6.051h-3.155V9.108h2.348q.477 0 .66-.184.202-.201.202-.678V5.77h1.412v3.338h4.31v1.247h-4.31v6.968h4.31v1.247zM18.844 18.57q-.862 0-1.229-.44-.366-.44-.458-1.1h-.092q-.312.825-1.008 1.302-.68.458-1.834.458-1.485 0-2.366-.77-.88-.77-.88-2.109 0-1.32.954-2.035.972-.716 3.117-.716h2.017v-.935q0-1.045-.587-1.559-.586-.531-1.668-.531-.954 0-1.56.385a2.75 2.75 0 0 0-.971 1.008l-.99-.733q.183-.367.495-.715.311-.349.77-.606a3.8 3.8 0 0 1 1.045-.421q.588-.165 1.302-.165 1.67 0 2.641.843.99.844.99 2.347v5.208h1.32v1.284zm-4.364-1.009q.568 0 1.027-.128.475-.147.825-.367.349-.238.531-.55.202-.33.202-.697v-1.558h-2.017q-1.32 0-1.925.366-.606.368-.606 1.064v.385q0 .734.514 1.119.531.366 1.449.366M9.059 19.652q0 1.43-1.192 2.109-1.192.696-3.576.697-2.292 0-3.3-.605Q0 21.246 0 20.11q0-.77.403-1.191.404-.423 1.137-.624v-.22a1.64 1.64 0 0 1-.623-.514q-.22-.31-.22-.788 0-.734.477-1.1.496-.367 1.228-.55v-.074a3.1 3.1 0 0 1-1.375-1.137Q.55 13.16.55 12.152q0-.716.257-1.32.257-.606.733-1.027a3.5 3.5 0 0 1 1.174-.679 4.5 4.5 0 0 1 1.504-.238q1.063 0 1.87.385v-.165q0-.55.257-.917.256-.367.88-.367h1.742v1.284H6.84v.642q.513.44.789 1.045.275.604.275 1.357 0 .716-.275 1.32a3 3 0 0 1-.734 1.045q-.477.423-1.174.66a4.5 4.5 0 0 1-1.503.239 5.5 5.5 0 0 1-.899-.073 2.4 2.4 0 0 0-.458.128 1.5 1.5 0 0 0-.44.22q-.203.129-.33.312a.7.7 0 0 0-.129.421q0 .422.422.569.422.129 1.1.128h2.09q1.835 0 2.66.697.825.679.825 1.834m-1.375.073q0-.568-.459-.917-.458-.33-1.595-.33H2.347q-.953.386-.953 1.284 0 .624.495 1.064.495.458 1.65.458h1.43q1.284 0 2-.403.715-.385.715-1.156M4.218 14.28q1.1 0 1.613-.514.532-.513.532-1.357v-.531q0-.844-.532-1.339-.513-.513-1.613-.513t-1.614.513q-.513.495-.513 1.339v.531q0 .844.513 1.358.513.513 1.614.513"/></svg>
